X: 20144
M: 3/4
L: 1/8
K: A
[|\
E2A2B2 | c2z2E2 | d2z2E2 | c2abc'2 |\
E2A2B2 | z2{d}c2z2 | z2{d}c2{d}c2 | B2EFGA |\
d2z2E2 | c2^DEFG |\
c6- | {d}c2B2c2 | (d4cB) | (E2A2)B2 |
c6- | c2B2c2 | (d2f2)e2 | {e2}c6 |\
c6- | {d}c2B2c2 | (d4cB) | E2G2A2 |\


